icons/src/svg/face_satisfied.svg

<svg width="32" height="32" viewBox="0 0 32 32" fill="none" xmlns="http://www.w3.org/2000/svg">
<path fill-rule="evenodd" clip-rule="evenodd" d="M16 4C9.37258 4 4 9.37258 4 16C4 22.6274 9.37258 28 16 28C22.6274 28 28 22.6274 28 16C28 9.37258 22.6274 4 16 4ZM2 16C2 8.26801 8.26801 2 16 2C23.732 2 30 8.26801 30 16C30 23.732 23.732 30 16 30C8.26801 30 2 23.732 2 16ZM10 14C10 12.8954 10.8954 12 12 12C13.1046 12 14 12.8954 14 14C14 15.1046 13.1046 16 12 16C10.8954 16 10 15.1046 10 14ZM18 14C18 12.8954 18.8954 12 20 12C21.1046 12 22 12.8954 22 14C22 15.1046 21.1046 16 20 16C18.8954 16 18 15.1046 18 14ZM9.36205 19.2299C9.78735 18.8776 10.4177 18.9367 10.7701 19.362C12.1947 21.0817 14.082 22 16 22C17.918 22 19.8053 21.0817 21.2299 19.362C21.5823 18.9367 22.2127 18.8776 22.638 19.2299C23.0633 19.5823 23.1224 20.2127 22.7701 20.638C21.0121 22.76 18.5829 24 16 24C13.4171 24 10.9879 22.76 9.22992 20.638C8.87759 20.2127 8.93675 19.5823 9.36205 19.2299Z" fill="#0D0F13"/>
</svg>

<svg xmlns="http://www.w3.org/2000/svg" fill="none" viewBox="0 0 32 32"><path fill="#0D0F13" fill-rule="evenodd" d="M16 4C9.373 4 4 9.373 4 16s5.373 12 12 12 12-5.373 12-12S22.627 4 16 4ZM2 16C2 8.268 8.268 2 16 2s14 6.268 14 14-6.268 14-14 14S2 23.732 2 16Zm8-2a2 2 0 1 1 4 0 2 2 0 0 1-4 0Zm8 0a2 2 0 1 1 4 0 2 2 0 0 1-4 0Zm-8.638 5.23a1 1 0 0 1 1.408.132C12.195 21.082 14.082 22 16 22c1.918 0 3.805-.918 5.23-2.638a1 1 0 0 1 1.54 1.276C21.012 22.76 18.583 24 16 24c-2.583 0-5.012-1.24-6.77-3.362a1 1 0 0 1 .132-1.408Z" clip-rule="evenodd"/></svg>
